Newaita-dark/.DP/16/youtube-indicator-light-disabled.svg

<svg xmlns="http://www.w3.org/2000/svg" xmlns:xlink="http://www.w3.org/1999/xlink" width="16px" height="16px" viewBox="0 0 16 16" version="1.1">
<g id="surface1">
<path style=" stroke:none;fill-rule:nonzero;fill:rgb(93.333334%,93.333334%,93.333334%);fill-opacity:0.392157;" d="M 7.917969 2.910156 C 7.917969 2.910156 3.585938 2.910156 2.503906 3.195312 C 1.921875 3.351562 1.445312 3.832031 1.285156 4.425781 C 1 5.507812 1 7.753906 1 7.753906 C 1 7.753906 1 10.011719 1.285156 11.082031 C 1.445312 11.675781 1.910156 12.140625 2.503906 12.300781 C 3.597656 12.597656 7.917969 12.597656 7.917969 12.597656 C 7.917969 12.597656 12.25 12.597656 13.332031 12.3125 C 13.925781 12.152344 14.394531 11.6875 14.554688 11.09375 C 14.839844 10.011719 14.839844 7.765625 14.839844 7.765625 C 14.839844 7.765625 14.851562 5.507812 14.554688 4.425781 C 14.394531 3.832031 13.925781 3.363281 13.332031 3.207031 C 12.25 2.910156 7.917969 2.910156 7.917969 2.910156 Z M 6.597656 5.21875 C 6.601562 5.21875 6.609375 5.21875 6.613281 5.21875 C 6.671875 5.222656 6.726562 5.238281 6.773438 5.265625 L 10.457031 7.441406 C 10.675781 7.570312 10.675781 7.886719 10.457031 8.015625 L 6.773438 10.195312 C 6.550781 10.324219 6.269531 10.164062 6.269531 9.90625 L 6.269531 5.554688 C 6.269531 5.371094 6.417969 5.222656 6.597656 5.21875 Z M 6.597656 5.21875 "/>
</g>
</svg>

<svg xmlns="http://www.w3.org/2000/svg" width="16" height="16"><path d="M7.918 2.91s-4.332 0-5.414.285a1.76 1.76 0 0 0-1.219 1.23C1 5.509 1 7.755 1 7.755s0 2.258.285 3.328a1.73 1.73 0 0 0 1.219 1.219c1.094.297 5.414.297 5.414.297s4.332 0 5.414-.286a1.735 1.735 0 0 0 1.223-1.218c.285-1.082.285-3.328.285-3.328s.012-2.258-.285-3.34a1.728 1.728 0 0 0-1.223-1.219C12.25 2.91 7.918 2.91 7.918 2.91zM6.598 5.22h.015c.059.004.114.02.16.047l3.684 2.175a.333.333 0 0 1 0 .575l-3.684 2.18a.336.336 0 0 1-.503-.29V5.555c0-.184.148-.332.328-.336zm0 0" fill="#bdbdbd" fill-opacity=".392"/></svg>
